assets/Candy/Flat/candy_flat.svg

<svg width="32" height="32" viewBox="0 0 32 32" fill="none" xmlns="http://www.w3.org/2000/svg">
<path d="M13 4C13 2.9 12.1 2 11 2C9.9 2 9 2.9 9 4C9 4.8 8.03 5.2 7.46 4.64L7.41 4.59C6.63 3.81 5.36 3.81 4.58 4.59C3.8 5.37 3.8 6.64 4.58 7.42L4.63 7.47C5.2 8.03 4.8 9 4 9C2.9 9 2 9.9 2 11C2 12.1 2.9 13 4 13H13V4Z" fill="#F8312F"/>
<path d="M19 24.4879C18.0617 24.8195 17.0519 25 16 25C15.1764 25 14.3787 24.8894 13.6209 24.6822C14.525 24.9262 15.4472 25.0288 16.36 24.99C15.2 22.7 15.49 19.85 17.3 17.82C18.57 16.4 20.33 15.67 22.09 15.67C23.08 15.67 24.08 15.9 24.99 16.36C25.0239 15.5551 24.9501 14.7501 24.7686 13.9635C24.92 14.6179 25 15.2996 25 16C25 17.0519 24.8195 18.0617 24.4879 19L24.2279 19.21H22.5022C20.5722 19.21 19.2341 20.554 19.2341 22.484V24.2403L19 24.4879Z" fill="#FCD53F"/>
<path d="M24.6596 13.5399C23.8297 13.2899 22.9699 13.16 22.09 13.16C19.55 13.16 17.12 14.25 15.43 16.15C14.63 17.05 14.03 18.08 13.64 19.21C13.27 20.3 13.11 21.44 13.18 22.6C13.22 23.2999 13.34 23.9897 13.5399 24.6596C12.7027 24.4223 11.9152 24.0668 11.1964 23.6123C11.1743 23.5644 11.0665 23.49 11.0452 23.4418C9.60849 20.1906 10.0491 16.1935 12.5599 13.3676C14.3999 11.2976 17.0948 10.1843 19.6648 10.1843C20.9725 10.1843 22.1709 10.4686 23.3877 11.0219C23.4271 11.0398 23.5709 11.1915 23.61 11.21C23.17 10.51 22.62 9.85999 21.98 9.27999C21.24 8.61999 20.43 8.10999 19.57 7.73999C19.4961 7.74044 19.4609 7.80018 19.3873 7.80198C17.8355 7.84004 16.3402 8.16791 14.9082 8.78845C13.3282 9.47845 11.9482 10.4885 10.7982 11.7785C9.72822 12.9785 8.92822 14.3585 8.40822 15.8685C8.02121 17.0106 7.85715 18.1593 7.82654 19.3653C7.82483 19.4325 7.73072 19.4894 7.73012 19.5568C7.26027 18.4658 7 17.2633 7 16C7 11.0294 11.0294 7 16 7C20.1176 7 23.5894 9.76517 24.6596 13.5399Z" fill="#FCD53F"/>
<path d="M12.69 13.46C14.53 11.39 17.09 10.33 19.66 10.33C21.01 10.33 22.36 10.62 23.61 11.21C23.17 10.51 22.62 9.85999 21.98 9.27999C21.24 8.61999 20.43 8.10999 19.57 7.73999C17.94 7.74999 16.36 8.08999 14.86 8.73999C13.28 9.42999 11.9 10.44 10.75 11.73C9.68001 12.93 8.88001 14.31 8.36001 15.82C7.95001 17.03 7.74001 18.29 7.73001 19.57C8.23001 20.74 8.99001 21.82 10.01 22.72C10.39 23.06 10.79 23.36 11.2 23.62C9.68001 20.34 10.14 16.33 12.69 13.46Z" fill="#F8312F"/>
<path d="M19 28C19 29.1 19.9 30 21 30C22.1 30 23 29.1 23 28C23 27.2 23.97 26.8 24.54 27.36L24.59 27.41C25.37 28.19 26.64 28.19 27.42 27.41C28.2 26.63 28.2 25.36 27.42 24.58L27.37 24.53C26.8 23.97 27.2 23 28 23C29.1 23 30 22.1 30 21C30 19.9 29.1 19 28 19H22.5C20.57 19 19 20.57 19 22.5V28Z" fill="#F8312F"/>
<path d="M17.3297 17.8348C15.5197 19.8648 15.2 22.7 16.36 24.99C15.42 25.03 14.47 24.92 13.54 24.66C13.34 23.99 13.1507 23.2911 13.1107 22.5911C13.0407 21.4311 13.2343 20.2191 13.6043 19.1291C13.9943 17.9991 14.5917 17.0296 15.3917 16.1296C17.0817 14.2296 19.55 13.1096 22.09 13.1096C22.97 13.1096 23.83 13.29 24.66 13.54C24.92 14.46 25.03 15.41 24.99 16.36C24.08 15.9 23.08 15.705 22.09 15.705C20.33 15.705 18.5997 16.4148 17.3297 17.8348Z" fill="#F8312F"/>
</svg>

<svg xmlns="http://www.w3.org/2000/svg" width="32" height="32" fill="none"><path fill="#F8312F" d="M13 4c0-1.1-.9-2-2-2s-2 .9-2 2c0 .8-.97 1.2-1.54.64l-.05-.05c-.78-.78-2.05-.78-2.83 0-.78.78-.78 2.05 0 2.83l.05.05C5.2 8.03 4.8 9 4 9c-1.1 0-2 .9-2 2s.9 2 2 2h9V4Z"/><path fill="#FCD53F" d="M19 24.488A8.987 8.987 0 0 1 16 25c-.824 0-1.621-.11-2.38-.318a9.033 9.033 0 0 0 2.74.308 6.41 6.41 0 0 1 .94-7.17 6.42 6.42 0 0 1 7.69-1.46A8.972 8.972 0 0 0 25 16c0 1.052-.18 2.062-.512 3l-.26.21h-1.726c-1.93 0-3.268 1.344-3.268 3.274v1.756l-.234.248Z"/><path fill="#FCD53F" d="M24.66 13.54a8.88 8.88 0 0 0-2.57-.38c-2.54 0-4.97 1.09-6.66 2.99a9 9 0 0 0-1.79 3.06 8.842 8.842 0 0 0-.46 3.39c.04.7.16 1.39.36 2.06a8.952 8.952 0 0 1-2.344-1.048c-.022-.048-.13-.122-.15-.17-1.438-3.251-.997-7.248 1.514-10.074 1.84-2.07 4.535-3.184 7.105-3.184 1.308 0 2.506.285 3.723.838.04.018.183.17.222.188-.44-.7-.99-1.35-1.63-1.93a8.88 8.88 0 0 0-2.41-1.54c-.074 0-.11.06-.183.062a11.804 11.804 0 0 0-8.59 3.977c-1.069 1.2-1.869 2.58-2.389 4.09-.387 1.142-.55 2.29-.581 3.496-.002.068-.096.124-.097.192a9 9 0 1 1 16.93-6.017Z"/><path fill="#F8312F" d="M12.69 13.46a9.304 9.304 0 0 1 6.97-3.13c1.35 0 2.7.29 3.95.88-.44-.7-.99-1.35-1.63-1.93a8.88 8.88 0 0 0-2.41-1.54c-1.63.01-3.21.35-4.71 1-1.58.69-2.96 1.7-4.11 2.99-1.07 1.2-1.87 2.58-2.39 4.09-.41 1.21-.62 2.47-.63 3.75.5 1.17 1.26 2.25 2.28 3.15.38.34.78.64 1.19.9-1.52-3.28-1.06-7.29 1.49-10.16ZM19 28c0 1.1.9 2 2 2s2-.9 2-2c0-.8.97-1.2 1.54-.64l.05.05c.78.78 2.05.78 2.83 0 .78-.78.78-2.05 0-2.83l-.05-.05C26.8 23.97 27.2 23 28 23c1.1 0 2-.9 2-2s-.9-2-2-2h-5.5c-1.93 0-3.5 1.57-3.5 3.5V28Z"/><path fill="#F8312F" d="M17.33 17.835c-1.81 2.03-2.13 4.865-.97 7.155-.94.04-1.89-.07-2.82-.33-.2-.67-.39-1.369-.43-2.069-.07-1.16.124-2.372.494-3.462.39-1.13.988-2.1 1.788-3a9.036 9.036 0 0 1 6.698-3.02c.88 0 1.74.181 2.57.431.26.92.37 1.87.33 2.82-.91-.46-1.91-.655-2.9-.655-1.76 0-3.49.71-4.76 2.13Z"/></svg>
